images/icons/renovation.svg

<svg height="32pt" viewBox="0 0 32 32" width="32pt" xmlns="http://www.w3.org/2000/svg"><path d="m29.847656 17.238281v-1.730469c0-1.277343-1.039062-2.320312-2.320312-2.320312h-5.164063v-3.550781l.191407.109375c.238281.140625.5.210937.765624.210937.132813 0 .265626-.019531.398438-.054687.394531-.105469.726562-.359375.933594-.710938l.40625-.703125c.421875-.730469.171875-1.671875-.5625-2.097656l-10.589844-6.128906c-.597656-.3476565-1.34375-.3476565-1.941406 0l-10.59375 6.128906c-.730469.425781-.980469 1.367187-.558594 2.097656l.40625.699219c.207031.355469.535156.609375.933594.714844.394531.105468.808594.050781 1.160156-.15625l.195312-.109375v11.089843c0 .257813.207032.46875.46875.46875h11.554688c.425781.558594 1.09375.917969 1.847656.917969h7.394532c.257812 0 .46875-.207031.46875-.46875 0-.257812-.210938-.46875-.46875-.46875h-7.394532c-.761718 0-1.378906-.617187-1.378906-1.378906v-4.289063c0-.761718.617188-1.382812 1.378906-1.382812h10.148438c.761718 0 1.382812.621094 1.382812 1.382812v4.289063c0 .761719-.621094 1.378906-1.382812 1.378906h-.878906c-.257813 0-.46875.210938-.46875.46875 0 .261719.210937.46875.46875.46875h.878906c1.28125 0 2.320312-1.039062 2.320312-2.316406v-1.566406c.359375.171875.609375.542969.609375.96875v2.410156c0 .59375-.484375 1.078125-1.078125 1.078125h-5.480468c-1.054688 0-1.914063.859375-1.914063 1.914062v.777344h-.28125c-.867187 0-1.574219.707032-1.574219 1.574219v3.472656c0 .867188.707032 1.574219 1.574219 1.574219h1.503906c.867188 0 1.574219-.707031 1.574219-1.574219v-3.472656c0-.867187-.707031-1.574219-1.574219-1.574219h-.285156v-.777344c0-.539062.4375-.976562.976563-.976562h5.480468c1.109375 0 2.015625-.902344 2.015625-2.015625v-2.410156c0-.949219-.660156-1.75-1.546875-1.960938zm-25.402344 3.019531v-11.164062l3.523438-2.039062c.226562-.132813.300781-.417969.171875-.640626-.128906-.226562-.417969-.300781-.640625-.171874l-4.65625 2.695312c-.136719.078125-.296875.101562-.449219.058594-.15625-.039063-.285156-.136719-.363281-.277344l-.40625-.699219c-.164062-.285156-.066406-.652343.214844-.816406l10.59375-6.132813c.308594-.179687.695312-.179687 1.003906 0l10.589844 6.132813c.285156.164063.382812.53125.21875.816406l-.40625.699219c-.082032.140625-.207032.238281-.363282.277344-.152343.042968-.3125.019531-.453124-.058594l-9.855469-5.707031c-.144531-.082031-.324219-.082031-.46875 0l-3.578125 2.074219c-.226563.128906-.300782.414062-.171875.640624.128906.222657.417969.300782.640625.171876l3.34375-1.9375 8.492187 4.914062v4.09375h-3.796875v-3.089844c0-.988281-.804687-1.792968-1.792968-1.792968h-5.800782c-.988281 0-1.792968.804687-1.792968 1.792968v5.5625c0 .988282.804687 1.792969 1.792968 1.792969h5.027344v2.34375c0 .15625.015625.3125.046875.460937zm6.4375-5.449218v-1.460938h1.582032v1.460938zm4.101563-3.863282v1.464844h-1.582031v-1.464844zm-2.519531 1.464844h-1.582032v-1.464844h1.582032zm.9375.9375h1.582031v1.460938h-1.582031zm2.519531.359375v-3.230469c0-.257812-.207031-.46875-.46875-.46875h-5.039063c-.257812 0-.46875.210938-.46875.46875v4.800782c0 .257812.210938.46875.46875.46875h4.648438v.769531h-5.027344c-.472656 0-.855468-.386719-.855468-.855469v-5.5625c0-.472656.382812-.855468.855468-.855468h5.800782c.46875 0 .855468.382812.855468.855468v3.195313c-.285156.089843-.542968.230469-.769531.414062zm7.921875 13.246094v3.472656c0 .351563-.285156.636719-.636719.636719h-1.503906c-.351563 0-.636719-.285156-.636719-.636719v-3.472656c0-.351563.285156-.636719.636719-.636719h1.503906c.351563 0 .636719.285156.636719.636719zm0 0" fill="#fff"/></svg>

<?xml version="1.0" encoding="UTF-8"?>
<svg xmlns="http://www.w3.org/2000/svg" xmlns:xlink="http://www.w3.org/1999/xlink" width="32pt" height="32pt" viewBox="0 0 32 32" version="1.1">
<g id="surface1">
<path style=" stroke:none;fill-rule:nonzero;fill:rgb(255,255,255);fill-opacity:1;" d="M 29.847656 17.238281 L 29.847656 15.507812 C 29.847656 14.230469 28.808594 13.1875 27.527344 13.1875 L 22.363281 13.1875 L 22.363281 9.636719 L 22.554688 9.746094 C 22.792969 9.886719 23.054688 9.957031 23.320312 9.957031 C 23.453125 9.957031 23.585938 9.9375 23.71875 9.902344 C 24.113281 9.796875 24.445312 9.542969 24.652344 9.191406 L 25.058594 8.488281 C 25.480469 7.757812 25.230469 6.816406 24.496094 6.390625 L 13.90625 0.261719 C 13.308594 -0.0859375 12.5625 -0.0859375 11.964844 0.261719 L 1.371094 6.390625 C 0.640625 6.816406 0.390625 7.757812 0.8125 8.488281 L 1.21875 9.1875 C 1.425781 9.542969 1.753906 9.796875 2.152344 9.902344 C 2.546875 10.007812 2.960938 9.953125 3.3125 9.746094 L 3.507812 9.636719 L 3.507812 20.726562 C 3.507812 20.984375 3.714844 21.195312 3.976562 21.195312 L 15.53125 21.195312 C 15.957031 21.753906 16.625 22.113281 17.378906 22.113281 L 24.773438 22.113281 C 25.03125 22.113281 25.242188 21.90625 25.242188 21.644531 C 25.242188 21.386719 25.03125 21.175781 24.773438 21.175781 L 17.378906 21.175781 C 16.617188 21.175781 16 20.558594 16 19.796875 L 16 15.507812 C 16 14.746094 16.617188 14.125 17.378906 14.125 L 27.527344 14.125 C 28.289062 14.125 28.910156 14.746094 28.910156 15.507812 L 28.910156 19.796875 C 28.910156 20.558594 28.289062 21.175781 27.527344 21.175781 L 26.648438 21.175781 C 26.390625 21.175781 26.179688 21.386719 26.179688 21.644531 C 26.179688 21.90625 26.390625 22.113281 26.648438 22.113281 L 27.527344 22.113281 C 28.808594 22.113281 29.847656 21.074219 29.847656 19.796875 L 29.847656 18.230469 C 30.207031 18.402344 30.457031 18.773438 30.457031 19.199219 L 30.457031 21.609375 C 30.457031 22.203125 29.972656 22.6875 29.378906 22.6875 L 23.898438 22.6875 C 22.84375 22.6875 21.984375 23.546875 21.984375 24.601562 L 21.984375 25.378906 L 21.703125 25.378906 C 20.835938 25.378906 20.128906 26.085938 20.128906 26.953125 L 20.128906 30.425781 C 20.128906 31.292969 20.835938 32 21.703125 32 L 23.207031 32 C 24.074219 32 24.78125 31.292969 24.78125 30.425781 L 24.78125 26.953125 C 24.78125 26.085938 24.074219 25.378906 23.207031 25.378906 L 22.921875 25.378906 L 22.921875 24.601562 C 22.921875 24.0625 23.359375 23.625 23.898438 23.625 L 29.378906 23.625 C 30.488281 23.625 31.394531 22.722656 31.394531 21.609375 L 31.394531 19.199219 C 31.394531 18.25 30.734375 17.449219 29.847656 17.238281 Z M 4.445312 20.257812 L 4.445312 9.09375 L 7.96875 7.054688 C 8.195312 6.921875 8.269531 6.636719 8.140625 6.414062 C 8.011719 6.1875 7.722656 6.113281 7.5 6.242188 L 2.84375 8.9375 C 2.707031 9.015625 2.546875 9.039062 2.394531 8.996094 C 2.238281 8.957031 2.109375 8.859375 2.03125 8.71875 L 1.625 8.019531 C 1.460938 7.734375 1.558594 7.367188 1.839844 7.203125 L 12.433594 1.070312 C 12.742188 0.890625 13.128906 0.890625 13.4375 1.070312 L 24.027344 7.203125 C 24.3125 7.367188 24.410156 7.734375 24.246094 8.019531 L 23.839844 8.71875 C 23.757812 8.859375 23.632812 8.957031 23.476562 8.996094 C 23.324219 9.039062 23.164062 9.015625 23.023438 8.9375 L 13.167969 3.230469 C 13.023438 3.148438 12.84375 3.148438 12.699219 3.230469 L 9.121094 5.304688 C 8.894531 5.433594 8.820312 5.71875 8.949219 5.945312 C 9.078125 6.167969 9.367188 6.246094 9.589844 6.117188 L 12.933594 4.179688 L 21.425781 9.09375 L 21.425781 13.1875 L 17.628906 13.1875 L 17.628906 10.097656 C 17.628906 9.109375 16.824219 8.304688 15.835938 8.304688 L 10.035156 8.304688 C 9.046875 8.304688 8.242188 9.109375 8.242188 10.097656 L 8.242188 15.660156 C 8.242188 16.648438 9.046875 17.453125 10.035156 17.453125 L 15.0625 17.453125 L 15.0625 19.796875 C 15.0625 19.953125 15.078125 20.109375 15.109375 20.257812 Z M 10.882812 14.808594 L 10.882812 13.347656 L 12.464844 13.347656 L 12.464844 14.808594 Z M 14.984375 10.945312 L 14.984375 12.410156 L 13.402344 12.410156 L 13.402344 10.945312 Z M 12.464844 12.410156 L 10.882812 12.410156 L 10.882812 10.945312 L 12.464844 10.945312 Z M 13.402344 13.347656 L 14.984375 13.347656 L 14.984375 14.808594 L 13.402344 14.808594 Z M 15.921875 13.707031 L 15.921875 10.476562 C 15.921875 10.21875 15.714844 10.007812 15.453125 10.007812 L 10.414062 10.007812 C 10.15625 10.007812 9.945312 10.21875 9.945312 10.476562 L 9.945312 15.277344 C 9.945312 15.535156 10.15625 15.746094 10.414062 15.746094 L 15.0625 15.746094 L 15.0625 16.515625 L 10.035156 16.515625 C 9.5625 16.515625 9.179688 16.128906 9.179688 15.660156 L 9.179688 10.097656 C 9.179688 9.625 9.5625 9.242188 10.035156 9.242188 L 15.835938 9.242188 C 16.304688 9.242188 16.691406 9.625 16.691406 10.097656 L 16.691406 13.292969 C 16.40625 13.382812 16.148438 13.523438 15.921875 13.707031 Z M 23.84375 26.953125 L 23.84375 30.425781 C 23.84375 30.777344 23.558594 31.0625 23.207031 31.0625 L 21.703125 31.0625 C 21.351562 31.0625 21.066406 30.777344 21.066406 30.425781 L 21.066406 26.953125 C 21.066406 26.601562 21.351562 26.316406 21.703125 26.316406 L 23.207031 26.316406 C 23.558594 26.316406 23.84375 26.601562 23.84375 26.953125 Z M 23.84375 26.953125 "/>
</g>
</svg>
